X:231
T:Also Simple
M:3/4
L:1/8
K:D
fe/d/ f2 A2|de f2 g2|fe/d/ e2 A2|d2 d4::\
ea ^g2 a2|ba ^g2 a2|
ea ^g2 a2|ba ^g2 a2|\
fe/d/ e2 A2|de f2 g2|fe/d/ e2 A2|d2 d4:|
